X: 39136
T: Sweet Rain
R: slide
M: 12/8
K: Adorian
c3 ecA GdB cBA|~c3 ecA GAB ~A3:|
cBA AeA cBA A2e|ecA dBG cBA AeA|
cBA AeA cBA A2e|ecA dBG cBA A2e|
|:Aec ~B3 Aec d2e|ecA GBd cde ~G3|
Aec ~B3 Aec d2e|ecA GBd cAe A3:|

